X: 33
T: Angus Ranald's Big Tune Strathspey
T: Strathspey, A
C: Aonghais Raonuill Bhain (Angus Ranald Beaton)
L: 1/16
M: C
K: A
|: c3e1 A3e1 c1e3 A3e1| c3e1 A3c1 B1F3 F3e1| c3A1 A1F3 E3D1 E3d1| c3A1 B1c1d1B1 c1A  3A4:| 
A4a3g1 f4e3c1| d3B1 c1A3 B1F3 F3A1| E4a3g1 f4e3d1| c3A1 B1c1d1B1 c1A3 A3B1| 
A4a3g1 f4e3c1| d3B1 c1A3 B1F3 F3A1| E3D1 E3F1 A3F1 A1B3| c3e1 B3d1 c1A3A4|| 
D: The Beatons of Mabou, Rounder 7011
D: Wendy MacIsaac, That's What You Get, WMT004 (as second Traditional Strathspey on set 8)
B: DunGreen Collection.
